static/icons/javascript.svg

<svg xmlns="http://www.w3.org/2000/svg" width="24" height="24" viewBox="0 0 24 24">
  <path d="M4,4 L4,20 L20,20 L20,4 L4,4 Z M12.7071429,16.4785714 C12.7071429,18.0357143 11.7928571,18.7464286 10.4607143,18.7464286 C9.25714286,18.7464286 8.56071429,18.125 8.20357143,17.3714286 L9.42857143,16.6321429 C9.66428571,17.05 9.87857143,17.4035714 10.3964286,17.4035714 C10.8892857,17.4035714 11.2035714,17.2107143 11.2035714,16.4571429 L11.2035714,11.3464286 L12.7071429,11.3464286 L12.7071429,16.4785714 Z M16.2642857,18.7464286 C14.8678571,18.7464286 13.9642857,18.0821429 13.525,17.2107143 L14.75,16.5035714 C15.0714286,17.0285714 15.4928571,17.4178571 16.2321429,17.4178571 C16.8535714,17.4178571 17.2535714,17.1071429 17.2535714,16.675 C17.2535714,16.1607143 16.8464286,15.9785714 16.1571429,15.675 L15.7821429,15.5142857 C14.6964286,15.0535714 13.9785714,14.4714286 13.9785714,13.2464286 C13.9785714,12.1178571 14.8392857,11.2607143 16.1785714,11.2607143 C17.1357143,11.2607143 17.8214286,11.5928571 18.3142857,12.4642857 L17.1428571,13.2142857 C16.8857143,12.7535714 16.6071429,12.5714286 16.175,12.5714286 C15.7357143,12.5714286 15.4571429,12.85 15.4571429,13.2142857 C15.4571429,13.6642857 15.7357143,13.8464286 16.3821429,14.1285714 L16.7571429,14.2892857 C18.0357143,14.8357143 18.7535714,15.3964286 18.7535714,16.6535714 C18.7535714,18.0035714 17.6892857,18.7464286 16.2642857,18.7464286 Z"/>
</svg>

<svg xmlns="http://www.w3.org/2000/svg" width="24" height="24">
    <path d="M4 4v16h16V4H4zm8.707 12.479c0 1.557-.914 2.267-2.246 2.267-1.204 0-1.9-.621-2.257-1.375l1.225-.739c.235.418.45.772.967.772.493 0 .808-.193.808-.947v-5.11h1.503v5.132zm3.557 2.267c-1.396 0-2.3-.664-2.739-1.535l1.225-.707c.321.525.743.914 1.482.914.622 0 1.022-.31 1.022-.743 0-.514-.408-.696-1.097-1l-.375-.16c-1.086-.461-1.803-1.044-1.803-2.269 0-1.128.86-1.985 2.2-1.985.957 0 1.642.332 2.135 1.203l-1.171.75c-.257-.46-.536-.643-.968-.643-.44 0-.718.279-.718.643 0 .45.279.632.925.915l.375.16c1.279.547 1.997 1.107 1.997 2.365 0 1.35-1.065 2.092-2.49 2.092z"/>
</svg>
